X:1
T:Title
%%score { ( 1 3 ) | ( 2 4 ) }
L:1/8
Q:1/4=100
M:4/4
K:Bb
V:1 treble nm="Grand Piano"
V:3 treble 
V:2 bass 
V:4 bass 
V:1
 [DF]3 [DF] [_D=E][=DF] [DB]>[_Ec] | d6 z2 | B3 A G2 A2 | [DB]6 z2 | A3 A A>B c>d | c4 z4 | %6
w: J.~Howard~Entwisle * * * * *||||||
 [DB]2 [DG]2 F2 z B, | F8 | [DF]3 [DF] [_D=E][=DF] [_EG]>[DF] | B6 z2 | F3 F GF =E>F |[M:3/4] c6 | %12
w: ||||||
[M:1/4] F>F |[M:4/4] [Fd]3 [Fd] [Ec]2 z A, |[M:9/8] B3- B G2- G[Ge]>[Ge] |[M:4/4] d3 B c3 A | B8 |] %17
w: |||||
V:2
 [B,,B,]3 [B,,B,] [B,,B,][B,,B,] [B,,F,]>[B,,F,] | [B,F]2 B,2[K:bass] B,2 [E,B,]>[E,E] | %2
 [F,DF]3 [F,DF] [F,E]2 [F,CE]2 | [B,,B,]6 z2 | [F,CF]3 [F,CF] [F,CF]>[F,B,F] [F,A,F]>[F,B,F] | %5
 [F,A,F]2 [F,A,]2 [F,C]2 [B,,B,]>[A,,^F,] | [G,,G,]2 [B,,G,]2 [C,A,C]2 .[C,G,C]2 | [A,C]2 z2 z4 | %8
 [B,,B,]3 [B,,B,] [B,,B,][B,,B,] [B,,B,]>[B,,B,] | [B,,F,]2 [B,,F,]2 [B,,F,]2 z2 | %10
 [B,D]3 [B,D] [B,E][B,D] [B,_D]>[B,=D] |[M:3/4] [A,CF]2[K:bass] [G,B,]2 [F,A,]2 | %12
[M:1/4] [F,A,]>[F,A,] |[M:4/4] [B,,B,]3 [B,,B,] [B,,F,]2 .[B,,F,]2 | %14
[M:9/8] [E,E]3- [E,E]- [E,B,E]2- [E,B,-E]/B,<[E,B,][E,B,]/ | %15
[M:4/4] [F,B,F]3 [F,B,D] [F,A,E]3 [F,CE] | z F,G,G, F,4 |] %17
V:3
 x8 | z2 F2 F2 [Ge]>[Gc] | x8 | x8 | x8 | z2 F2 [FA]2 [DG]>[DA] | z4 z2 =E2 | z2 D2 E4 | x8 | %9
 D2 D2 D2 z2 | x8 |[M:3/4] z2 =E2 F2 |[M:1/4] x2 |[M:4/4] z4 z2 [DB]2 |[M:9/8] x9 |[M:4/4] x8 | %16
 [B,D]DEE D4 |] %17
V:4
 x8 | x4[K:bass] x4 | x8 | x8 | x8 | x8 | x8 | F,2- [F,-B,]2 [F,C]4 | x8 | x8 | x8 | %11
[M:3/4] x2[K:bass] x4 |[M:1/4] x2 |[M:4/4] x8 |[M:9/8] .G,6 z3 |[M:4/4] x8 | B,,8 |] %17

